X:1
T:Polska efter Knuter Jon
R:Polska
O:Ore, Dalarna
N:Känd via Ola Bäckström
D:Ola Bäckström med Hans Röjås, Carina Normansson, Stefan Ekedahl & Björn Tollin
Z:Håkan Lidén, 2011-05-02
M:3/4
L:1/8
K:Gdor
D |: G>B d2 d2 | c>c f2 f2 | fe/f/ a>a g/a/g/e/ |1 fe/f/ d3 ^F :|
|2 fe/f/ d3 d |: A>A d2 d2 | c/d/c/A/ B3 B | A>A d2 d2 | cA B2-B/A/B/c/ | 
d>d AB c>B | AA/G/ B/c/B/A/ G>^F |1 G2 G3 D :|2 G2 G3 |]

